icons/1_Primary/Barmenia.svg

<svg xmlns="http://www.w3.org/2000/svg" width="1024" height="1024" fill="none">
   <g clip-path="url(#a)">
      <path fill="#9ABEFF" d="M512 1024c282.77 0 512-229.23 512-512S794.77 0 512 0 0 229.23 0 512s229.23 512 512 512Z"/>
      <path fill="#fff" d="M343.5 522.14a22.293 22.293 0 0 0 3.95-2v7.72a16.833 16.833 0 0 1-5.84 14.36 20.994 20.994 0 0 1-12.3 3.94 11 11 0 0 1-7.15-2.37 9.324 9.324 0 0 1-2.94-7.69 9.53 9.53 0 0 1 4.82-8.82 30.035 30.035 0 0 1 9.36-2.84l4.63-.87a32.7 32.7 0 0 0 5.47-1.43Zm-78.21-8.83a26.13 26.13 0 0 0-10.52-1.82h-25.92v28.66h25.59c3.653.177 7.3-.469 10.67-1.89a13.595 13.595 0 0 0 6.89-13.44 11.573 11.573 0 0 0-6.71-11.52v.01Zm321.43-19h-1.22a16.008 16.008 0 0 0-12.15 4.54 21.792 21.792 0 0 0-5.43 12.31H603a16.565 16.565 0 0 0-4.647-11.802 16.573 16.573 0 0 0-11.633-5.058v.01ZM896 505.49c0 60.367-21.807 101.204-65.42 122.51-24.06 11.54-57.667 17.31-100.82 17.31H128V383.65h605.08c42.727.46 75.893 6.007 99.5 16.64 42.28 19.1 63.42 54.167 63.42 105.2Zm-601.78 20.89a28.918 28.918 0 0 0-4.13-15.76 23.534 23.534 0 0 0-12.17-9.48 25.204 25.204 0 0 0 8-6.12 24.267 24.267 0 0 0 4.88-15.84 27.738 27.738 0 0 0-4.8-16.41 32 32 0 0 0-27.29-11.44h-50.86v107.5h47.44a71.503 71.503 0 0 0 14.88-1.46c4.329-.862 8.4-2.71 11.9-5.4a29.415 29.415 0 0 0 7.46-8.46 31.91 31.91 0 0 0 4.69-17.13Zm77.87 29.31a7.293 7.293 0 0 1-3-2.4 11.747 11.747 0 0 1-1.21-5.51c-.093-3.593-.14-6.656-.14-9.19v-36.46a19.996 19.996 0 0 0-10-19.54 48.803 48.803 0 0 0-22.81-5.18c-13.153 0-22.433 3.5-27.84 10.5a30.805 30.805 0 0 0-5.73 17.09H321a15.225 15.225 0 0 1 2.9-7.29 12.834 12.834 0 0 1 10.33-3.64 20.9 20.9 0 0 1 9.89 1.86 7 7 0 0 1 3.37 6.74 6.24 6.24 0 0 1-4.39 5.91 31.673 31.673 0 0 1-8.13 1.82l-7 .88a49.105 49.105 0 0 0-18 5.1 22.721 22.721 0 0 0-11.17 21.18 22.124 22.124 0 0 0 6.93 17.46 25.474 25.474 0 0 0 17.57 6.16 29.046 29.046 0 0 0 14.94-3.86 42.197 42.197 0 0 0 9.77-7.95c.14 1.807.33 3.414.57 4.82.278 1.546.71 3.061 1.29 4.52h22.15l.07-3.02ZM423 477.55c-.9 0-1.49-.11-1.75-.11h-1a22.001 22.001 0 0 0-14.86 4.88 43.778 43.778 0 0 0-8.22 10.87V479.3h-19.38v79.49h20.47v-38a32.362 32.362 0 0 1 2.35-14.15 16.795 16.795 0 0 1 16.53-8.17c.813 0 1.623.024 2.43.07 1.007.054 2.153.154 3.44.3l-.01-21.29Zm118.4 31.13a72.145 72.145 0 0 0-.69-11.74 23.097 23.097 0 0 0-4.43-10.21 22.727 22.727 0 0 0-9.08-7.15 26.652 26.652 0 0 0-10.14-2.07 29.793 29.793 0 0 0-14 3.28 26.173 26.173 0 0 0-9.93 10.28 23.371 23.371 0 0 0-6.71-9.55 27.793 27.793 0 0 0-29.79.69 33.266 33.266 0 0 0-7.14 8.82v-11.6h-19.8v79.34h20.66v-47.82a22.588 22.588 0 0 1 1.64-9.77 12.003 12.003 0 0 1 11.71-5.76 10.004 10.004 0 0 1 10.07 5.76 27.096 27.096 0 0 1 1.43 10.28v47.35h20.5v-47.32a22.846 22.846 0 0 1 1.64-9.12 11.714 11.714 0 0 1 11.66-7.14 10.107 10.107 0 0 1 10 5.51 16.917 16.917 0 0 1 1.43 7.44v50.61h20.86l.11-50.11Zm26 16.2h56.71a103.62 103.62 0 0 0-.69-15.77 39.544 39.544 0 0 0-6.2-16.43 31.872 31.872 0 0 0-13.46-11.76 43.593 43.593 0 0 0-18.31-3.73 37.137 37.137 0 0 0-27.85 11 43.571 43.571 0 0 0-10.73 31.68c0 14.667 3.96 25.274 11.88 31.82a41.908 41.908 0 0 0 27.43 9.78 37.448 37.448 0 0 0 29.29-11.59 26.164 26.164 0 0 0 7.57-14.36h-20.75a17.372 17.372 0 0 1-4.19 5.48 16.994 16.994 0 0 1-11.31 3.64 20.34 20.34 0 0 1-11.22-3 19.194 19.194 0 0 1-8.14-16.76h-.03Zm133.3-19.62a26.592 26.592 0 0 0-7.65-21.4 29.453 29.453 0 0 0-19.67-6.45 25.275 25.275 0 0 0-15.84 4.82 35.011 35.011 0 0 0-7.4 8.82v-11.6h-19.75v79.31h20.36v-43a31.604 31.604 0 0 1 2-12.11 14.052 14.052 0 0 1 14.12-9 11.413 11.413 0 0 1 11.35 6.13 22.647 22.647 0 0 1 1.63 9.64v48.35h20.85v-53.51Zm29.13-26h-20.65v79.48h20.66l-.01-79.48Zm0-28.66h-20.65v19.18h20.66l-.01-19.18Zm80.72 105a7.273 7.273 0 0 1-3-2.4 11.739 11.739 0 0 1-1.22-5.51c-.093-3.593-.14-6.656-.14-9.19v-36.37a19.996 19.996 0 0 0-10-19.54 48.803 48.803 0 0 0-22.81-5.18c-13.153 0-22.433 3.5-27.84 10.5a30.805 30.805 0 0 0-5.71 17.09h19.65a15.225 15.225 0 0 1 2.9-7.29 12.834 12.834 0 0 1 10.33-3.64 20.9 20.9 0 0 1 9.89 1.86 7 7 0 0 1 3.37 6.74 6.24 6.24 0 0 1-4.39 5.91 31.673 31.673 0 0 1-8.13 1.82l-7 .88a49.11 49.11 0 0 0-18 5.05 22.724 22.724 0 0 0-11.16 21.22 22.124 22.124 0 0 0 6.93 17.46 25.474 25.474 0 0 0 17.57 6.16 29.046 29.046 0 0 0 14.94-3.86 42.197 42.197 0 0 0 9.77-7.95c.14 1.807.33 3.414.57 4.82a23.33 23.33 0 0 0 1.29 4.52h22.15l.04-3.1Zm-34.09-32.13-4.63.87a30.035 30.035 0 0 0-9.36 2.84 9.524 9.524 0 0 0-4.82 8.82 9.314 9.314 0 0 0 2.94 7.69 11 11 0 0 0 7.15 2.37 20.99 20.99 0 0 0 12.26-3.84 16.82 16.82 0 0 0 5.84-14.36v-7.72a22.328 22.328 0 0 1-3.95 2 32.621 32.621 0 0 1-5.42 1.42l-.01-.09ZM265.57 491a10.226 10.226 0 0 0 4.28-9.44 9.64 9.64 0 0 0-5.66-9.92 38.968 38.968 0 0 0-12.44-1.64h-22.9v23.69h25.59a20.786 20.786 0 0 0 11.13-2.69Z"/>
   </g>
   <defs>
      <clipPath id="a">
         <path fill="#fff" d="M0 0h1024v1024H0z"/>
      </clipPath>
   </defs>
</svg>

<svg width="1024" height="1024" viewBox="0 0 1024 1024" fill="none" xmlns="http://www.w3.org/2000/svg">
<g clip-path="url(#clip0_2_1563)">
<path d="M512 1024C794.77 1024 1024 794.77 1024 512C1024 229.23 794.77 0 512 0C229.23 0 0 229.23 0 512C0 794.77 229.23 1024 512 1024Z" fill="#9ABEFF"/>
<path d="M343.5 522.14C344.88 521.606 346.203 520.936 347.45 520.14V527.86C347.699 530.547 347.298 533.254 346.282 535.753C345.265 538.252 343.663 540.47 341.61 542.22C338.026 544.793 333.722 546.172 329.31 546.16C326.722 546.236 324.19 545.397 322.16 543.79C321.114 542.819 320.305 541.621 319.795 540.288C319.285 538.954 319.088 537.522 319.22 536.1C319.122 534.327 319.521 532.562 320.373 531.003C321.224 529.445 322.495 528.155 324.04 527.28C326.984 525.828 330.146 524.869 333.4 524.44L338.03 523.57C339.891 523.252 341.721 522.774 343.5 522.14ZM265.29 513.31C261.946 511.986 258.365 511.366 254.77 511.49H228.85V540.15H254.44C258.093 540.327 261.74 539.681 265.11 538.26C267.458 536.952 269.366 534.977 270.592 532.585C271.818 530.193 272.308 527.491 272 524.82C272.206 522.443 271.672 520.059 270.471 517.997C269.27 515.934 267.46 514.294 265.29 513.3V513.31ZM586.72 494.31H585.5C583.27 494.177 581.037 494.512 578.944 495.294C576.852 496.076 574.946 497.287 573.35 498.85C570.287 502.278 568.386 506.587 567.92 511.16H603C603.038 508.984 602.648 506.822 601.85 504.797C601.053 502.772 599.864 500.924 598.353 499.358C596.841 497.792 595.035 496.54 593.039 495.672C591.043 494.804 588.896 494.338 586.72 494.3V494.31ZM896 505.49C896 565.857 874.193 606.694 830.58 628C806.52 639.54 772.913 645.31 729.76 645.31H128V383.65H733.08C775.807 384.11 808.973 389.657 832.58 400.29C874.86 419.39 896 454.457 896 505.49ZM294.22 526.38C294.382 520.84 292.949 515.369 290.09 510.62C287.214 506.183 282.927 502.843 277.92 501.14C280.971 499.659 283.692 497.578 285.92 495.02C289.355 490.477 291.083 484.869 290.8 479.18C290.968 473.341 289.288 467.599 286 462.77C282.708 458.808 278.508 455.698 273.757 453.707C269.006 451.715 263.844 450.9 258.71 451.33H207.85V558.83H255.29C260.287 558.865 265.275 558.375 270.17 557.37C274.499 556.508 278.57 554.66 282.07 551.97C285.079 549.658 287.612 546.785 289.53 543.51C292.683 538.359 294.309 532.419 294.22 526.38ZM372.09 555.69C370.894 555.173 369.858 554.344 369.09 553.29C368.245 551.579 367.83 549.688 367.88 547.78C367.787 544.187 367.74 541.124 367.74 538.59V502.13C368.16 498.253 367.437 494.338 365.66 490.866C363.883 487.394 361.13 484.518 357.74 482.59C350.669 479.04 342.841 477.262 334.93 477.41C321.777 477.41 312.497 480.91 307.09 487.91C303.519 492.908 301.523 498.86 301.36 505H321C321.313 502.359 322.313 499.845 323.9 497.71C325.247 496.379 326.871 495.362 328.657 494.733C330.443 494.103 332.346 493.877 334.23 494.07C337.629 493.875 341.024 494.514 344.12 495.93C345.266 496.615 346.192 497.614 346.789 498.808C347.386 500.002 347.63 501.343 347.49 502.67C347.479 503.994 347.049 505.279 346.259 506.342C345.47 507.404 344.364 508.188 343.1 508.58C340.482 509.542 337.748 510.154 334.97 510.4L327.97 511.28C321.699 511.811 315.587 513.542 309.97 516.38C306.321 518.521 303.342 521.637 301.368 525.379C299.395 529.121 298.505 533.34 298.8 537.56C298.604 540.801 299.123 544.045 300.32 547.062C301.518 550.08 303.365 552.797 305.73 555.02C310.6 559.217 316.876 561.417 323.3 561.18C328.537 561.264 333.699 559.93 338.24 557.32C341.876 555.174 345.169 552.494 348.01 549.37C348.15 551.177 348.34 552.784 348.58 554.19C348.858 555.736 349.29 557.251 349.87 558.71H372.02L372.09 555.69ZM423 477.55C422.1 477.55 421.51 477.44 421.25 477.44H420.25C414.866 477.192 409.578 478.928 405.39 482.32C402.099 485.492 399.326 489.16 397.17 493.19V479.3H377.79V558.79H398.26V520.79C397.975 515.957 398.778 511.122 400.61 506.64C402.268 503.814 404.716 501.535 407.653 500.083C410.59 498.632 413.888 498.071 417.14 498.47C417.953 498.47 418.763 498.494 419.57 498.54C420.577 498.594 421.723 498.694 423.01 498.84L423 477.55ZM541.4 508.68C541.49 504.755 541.259 500.828 540.71 496.94C540.088 493.227 538.567 489.722 536.28 486.73C533.92 483.604 530.792 481.141 527.2 479.58C523.988 478.234 520.543 477.531 517.06 477.51C512.195 477.444 507.389 478.57 503.06 480.79C498.86 483.229 495.422 486.789 493.13 491.07C491.737 487.371 489.429 484.085 486.42 481.52C481.901 478.795 476.7 477.413 471.425 477.535C466.149 477.657 461.018 479.279 456.63 482.21C453.762 484.72 451.347 487.703 449.49 491.03V479.43H429.69V558.77H450.35V510.95C450.167 507.612 450.727 504.276 451.99 501.18C453.178 499.193 454.916 497.591 456.994 496.569C459.071 495.547 461.4 495.148 463.7 495.42C465.769 495.214 467.851 495.659 469.656 496.691C471.46 497.723 472.899 499.293 473.77 501.18C474.905 504.483 475.39 507.974 475.2 511.46V558.81H495.7V511.49C495.618 508.37 496.176 505.266 497.34 502.37C498.291 500.109 499.928 498.203 502.02 496.922C504.112 495.641 506.553 495.049 509 495.23C511.028 495.034 513.068 495.455 514.852 496.439C516.637 497.422 518.082 498.921 519 500.74C520.033 503.08 520.522 505.624 520.43 508.18V558.79H541.29L541.4 508.68ZM567.4 524.88H624.11C624.281 519.614 624.051 514.342 623.42 509.11C622.611 503.238 620.492 497.623 617.22 492.68C613.947 487.557 609.277 483.476 603.76 480.92C597.998 478.368 591.751 477.095 585.45 477.19C580.299 476.99 575.162 477.865 570.367 479.758C565.572 481.652 561.224 484.524 557.6 488.19C553.813 492.504 550.915 497.523 549.074 502.96C547.233 508.396 546.484 514.143 546.87 519.87C546.87 534.537 550.83 545.144 558.75 551.69C566.43 558.124 576.162 561.594 586.18 561.47C591.611 561.782 597.045 560.906 602.103 558.905C607.161 556.903 611.723 553.824 615.47 549.88C619.452 546.017 622.103 540.988 623.04 535.52H602.29C601.273 537.609 599.849 539.472 598.1 541C594.89 543.535 590.875 544.827 586.79 544.64C582.838 544.752 578.939 543.709 575.57 541.64C572.901 539.768 570.754 537.247 569.329 534.315C567.905 531.382 567.252 528.135 567.43 524.88H567.4ZM700.7 505.26C701.085 501.35 700.598 497.402 699.275 493.702C697.953 490.002 695.827 486.641 693.05 483.86C687.49 479.401 680.501 477.109 673.38 477.41C667.709 477.193 662.129 478.89 657.54 482.23C654.603 484.742 652.103 487.722 650.14 491.05V479.45H630.39V558.76H650.75V515.76C650.619 511.632 651.298 507.518 652.75 503.65C653.826 500.834 655.78 498.438 658.323 496.817C660.866 495.196 663.862 494.437 666.87 494.65C669.159 494.408 671.469 494.863 673.494 495.958C675.52 497.052 677.167 498.733 678.22 500.78C679.459 503.837 680.015 507.127 679.85 510.42V558.77H700.7V505.26ZM729.83 479.26H709.18V558.74H729.84L729.83 479.26ZM729.83 450.6H709.18V469.78H729.84L729.83 450.6ZM810.55 555.6C809.353 555.083 808.317 554.255 807.55 553.2C806.701 551.49 806.283 549.599 806.33 547.69C806.237 544.097 806.19 541.034 806.19 538.5V502.13C806.61 498.253 805.887 494.338 804.11 490.866C802.333 487.394 799.58 484.518 796.19 482.59C789.119 479.04 781.291 477.262 773.38 477.41C760.227 477.41 750.947 480.91 745.54 487.91C741.976 492.911 739.987 498.862 739.83 505H759.48C759.793 502.359 760.793 499.845 762.38 497.71C763.727 496.379 765.351 495.362 767.137 494.733C768.923 494.103 770.826 493.877 772.71 494.07C776.109 493.875 779.504 494.514 782.6 495.93C783.746 496.615 784.672 497.614 785.269 498.808C785.866 500.002 786.11 501.343 785.97 502.67C785.959 503.994 785.529 505.279 784.739 506.342C783.95 507.404 782.844 508.188 781.58 508.58C778.962 509.542 776.228 510.154 773.45 510.4L766.45 511.28C760.182 511.795 754.071 513.51 748.45 516.33C744.796 518.475 741.815 521.599 739.843 525.348C737.871 529.098 736.987 533.325 737.29 537.55C737.094 540.791 737.613 544.035 738.81 547.052C740.008 550.07 741.855 552.787 744.22 555.01C749.09 559.207 755.366 561.407 761.79 561.17C767.027 561.254 772.189 559.92 776.73 557.31C780.366 555.164 783.659 552.484 786.5 549.36C786.64 551.167 786.83 552.774 787.07 554.18C787.347 555.727 787.779 557.241 788.36 558.7H810.51L810.55 555.6ZM776.46 523.47L771.83 524.34C768.576 524.769 765.414 525.728 762.47 527.18C760.924 528.055 759.654 529.345 758.803 530.903C757.951 532.462 757.552 534.227 757.65 536C757.518 537.422 757.715 538.854 758.225 540.188C758.735 541.521 759.544 542.719 760.59 543.69C762.62 545.297 765.152 546.136 767.74 546.06C772.127 546.093 776.415 544.75 780 542.22C782.054 540.471 783.657 538.253 784.673 535.753C785.689 533.254 786.09 530.547 785.84 527.86V520.14C784.593 520.936 783.269 521.606 781.89 522.14C780.127 522.768 778.314 523.243 776.47 523.56L776.46 523.47ZM265.57 491C267.06 489.951 268.243 488.523 268.996 486.863C269.748 485.203 270.043 483.373 269.85 481.56C270.087 479.52 269.665 477.456 268.647 475.672C267.629 473.887 266.067 472.475 264.19 471.64C260.159 470.425 255.958 469.871 251.75 470H228.85V493.69H254.44C258.329 493.853 262.185 492.921 265.57 491Z" fill="white"/>
</g>
<defs>
<clipPath id="clip0_2_1563">
<rect width="1024" height="1024" fill="white"/>
</clipPath>
</defs>
</svg>
